X:75
T:Madge on a Tree
T:Margery Cree
M:3/4
L:1/4
K:GDor
G | B> cd/e/ | f d b | c B F | c2 A | B>cd | d>_ed | B>AG | d2 G |
G> cd/e/ | f2 c | A2 F | c2 A | B>cd | e>fg | ^f>ef | g2 ||
%
%
